X: 1
T: Martin and Donna's jig
C: Nicholas Williams
R: jig
S: Paul Lizotte's "Joy of Sets" collection
Z: 2015 John Chambers <jc:trillian.mit.edu>
M: 6/8
L: 1/8
K: F
|:\
"F"CDF GFG | Acd cAF | "Fsus4"GBA GFG-| GBA GFD |\
"F"CDF GFG | Acd cAF | "Fsus4"GBA GFG | ABA G3 :|
"Dm"d3 def | "C"edc Gce | "Bb"dcB AFG-| "C"GBA GBc |\
"Dm"d3 def | "C"edc Gce | "Bb"dcB AGF | ABA Gcd |
"C"e3 efg | "Dm"fed def | "C"edc cde | "Bb"dcB Bcd |\
"C"e3 efg | "Dm"fed def | "C"edc BAG | ABA GFD |]

%%sep 1 1 500

